X:1
T:[ID 1-116a]
T:[ID 1-116a]
T:Bezeichnung standardisiert: Boure Boure
T:Urheber unbekannt Datum in der hier transkribierten schriftlichen Quelle: vermutlich vor 1767
C:Urheber unbekannt
C:Datum in der hier transkribierten schriftlichen Quelle: vermutlich vor 1767
L:1/8
M:none
K:D
V:1 treble 
V:1
 f2 e2 f2 e2 | dcde d4 | g2 f2 g2 f2 | edef e4 | f2 e2 f2 ed | c2 BA B2 A^G | A8 :: e2 ef e2 d2 | %8
 c2 d2 e4 | e2 ef e2 d2 | c2 d2 e4 | f2 a2 g2 f2 | e2 g2 f2 e2 | f2 ed e2 dc | d8 :| %15

